X: 20021
Q: "Slow"
M: 6/8
L: 1/8
K: G
(G>B)d gdB | d2d d2B | (G>B)d gdB | A2A A2B |\
(GB).d (gd).B | e>fg (gf).e | (d>c).B (cB).A | G2G G2 :|
|: d |\
g2d (ed).B | d2d d2d | g2d (ed).B | A2A A2d |\
g2d (ed).B | (d>e).f (g>f).e | (d>c).B (cB).A | G2G G2 :|


